X: 188
M: 6/8
L: 1/8
K: G
c |\
(B/c/d)B AFD | G2G G3 :|\
|:\
f3 efg | ABA A3 |\
f3 edc | Bcd dBG |\
(B/c/d)G AFD | G2G G3 :|

